X:1
T:The Well-Tempered Clavier Part I Fuga III
T:BWV 848
T:Johann Sebastian Bach
%%score { ( 1 2 ) | ( 3 4 ) }
L:1/8
Q:1/4=132
M:4/4
K:C#
V:1 treble nm="Harp"
V:2 treble 
V:3 bass 
V:4 bass 
V:1
 z z2 G A/G/F/G/ ec | GF/E/ Fd EcDB | Cc/B/ c/d/e/f/ g/^^f/e/^^f/ g/^f/e/d/ | %3
 e2- e/d/c/e/ d/c/B/d/ c/B/c/A/ | A/B/d f4 e2- | e2 d2- d2 Bd- | dG e3 e/c/ A2- | AA d3 d/B/ G2- | %8
 GG c2- c/B/c/A/ a2- | a/g/^^f/a/ g/d/e/^f/ e/d/c/d/ bg | dc/B/ ca BgA^^f | %11
 G/A/B/c/ B/A/G/B/ e/d/^^c/e/ g/f/e/g/ | g/4a/4=b/a/g/ f/e/d/^^c/ d/f/e/d/ ^^c/e/A/G/ | %13
 F/E/D/^^C/ D/E/F/G/ A/G/F/G/ A/G/F/E/ | F2- F/E/D/F/ E/D/C/E/ D/C/D/B,/ | %15
 C/E/F/E/ c2- c/B/c/A/ a2- | a/D/E/D/ B2- B/A/B/G/ g2- | g/C/D/C/ A2- A/G/A/^^F/ ^^f2- | %18
 f/^^d/e/c/ A4 G2- | G2 ^^F2- FE ^^D^^F | B/A/G/B/ A/G/^^F/A/ G/E/c/A/ B/G/f/^^d/ | %21
 ^^d/e/^^a/b/ d>e e2 z e | =B/A/G/A/ e^^c GF/E/ Fd | =A/G/F/G/ dB FE/D/ E/G/c/d/ | %24
 e/d/c/d/ bg dc/B/ ca | Bg A^^f G/D/E/^^F/ G/A/B/G/ | c/B/A/B/ c/B/A/G/ A2- A/G/F/A/ | %27
 G/F/E/G/ F/E/D/F/ EG c2 | z =e/c/ A2 z A/c/ e2 | dgc^^f Gg/^^f/ g/a/=b/g/ | %30
 e/f/g/e/ c/d/e/c/ A/B/c/A/ f/g/a/f/ | d/e/f/d/ B/c/d/B/ G/A/B/G/ e/f/g/e/ | %32
 ^^c/d/e/c/ A/B/^^c/A/ F/G/A/F/ d/e/f/d/ | B/c/d/B/ G/A/B/G/ E/F/G/E/ C/E/G/A/ | %34
 =B/A/G/A/ fc AG/F/ G/C/E/G/ | A/G/F/G/ ec GF/E/ F/B,/D/F/ | G/F/E/F/ dB FE/D/ E/G/A/B/ | %37
 c/d/e/d/ f/e/d/c/ a/4g/4f/4g/4a/4g/4a/4g/4 a/4g/4a/4g/4a/4g/4a/4g/4 | %38
 g/g/f/g/ e/g/d/g/ c/g/B/A/ B/d/e/f/ | g/f/e/g/ d/g/c/g/ B/g/A/G/ A/c/d/e/ | %40
 f/e/d/e/ c/d/B/d/ A/d/G/^^F/ G/B/c/d/ | e/f/g/a/ BG A/G/F/G/ ec | GF/E/ Fd EcDB | %43
 Cc/B/ c/d/e/f/ g/f/e/f/ g/f/e/d/ | e2- e/d/c/e/ d/c/B/d/ c/B/c/A/ | Bd f4 e2- | e2 d2- dc Bd- | %47
 dG c=B A4- | AA/F/ D2 DD G2- | GG/E/ ^^C2 CA, F2- | F/E/F/D/ d2 d/c/B/d/ c/G/A/=B/ | %51
 A/G/F/G/ ec GF/E/ Fd | EcDB C/E/F/G/ A/B/c/d/ | =e/d/c/d/ e/^^f/g/a/ c/B/A/G/ dF | %54
 E[CGc] DB !fermata!c4 |] %55
V:2
 z8 | z8 | z2 z C E/D/C/D/ BG | %3
 DC/B,/ CA[I:staff +1] B,[I:staff -1]G[I:staff +1] A,[I:staff -1]^^F | %4
[I:staff +1] G,[I:staff -1]G/^^F/ G/A/B/G/ c/B/A/B/ c/B/A/G/ | A2- A/G/F/A/ G/F/E/G/ F/E/F/D/ | %6
 E2 z G c3 c/A/ | D2 z ^^F B3 B/G/ | C2 z E A2- A/c/d/A/ | B2 z G- G/^^F/E/F/ G/^F/E/D/ | %10
 E2 E/D/C/E/ D/C/B,/D/ C/B,/C/A,/ | x8 | x8 | x8 | x8 | z2 z E A2 A/c/d/A/ | B z z D G2 G/B/c/G/ | %17
 A z z C ^^F2- ^^F/A/B/F/ | G2 z B, C/B,/A,/B,/ GE | %19
 B,[I:staff +1]A,/G,/ A,[I:staff -1]^^F[I:staff +1] G,[I:staff -1]E[I:staff +1] ^^F,[I:staff -1]^^D | %20
 x8 | x8 | x8 | x8 | z2 B4 A2- | AG ^^FA D/ z/ z z[I:staff +1] G, | %26
 A,/G,/F,/G,/[I:staff -1] EC[I:staff +1] G,F,/E,/ F,[I:staff -1]D | %27
[I:staff +1] E,[I:staff -1]C[I:staff +1] D,[I:staff -1]B, C2 z g/e/ | c2 z c/A/ F2 z c | %29
 B2 A2 G z z2 | x8 | x8 | x8 | x8 | x8 | x8 | x8 | x8 | x8 | x8 | x8 | x8 | x8 | %43
 z2 z C/D/ E/D/C/D/ BG | DC/B,/ CA[I:staff +1] B,[I:staff -1]G[I:staff +1] A,[I:staff -1]^^F | %45
[I:staff +1] G,[I:staff -1]G/F/ G/A/B/G/ c/B/A/B/ c/B/A/G/ | A2- A/G/F/A/ G/F/E/G/ F/E/F/D/ | %47
 E4- EC FD | F3 F/D/[I:staff +1] G,2[I:staff -1] z[I:staff +1] B, | %49
[I:staff -1] E3 E/^^C/[I:staff +1] F,2[I:staff -1] z[I:staff +1] A, | %50
[I:staff -1] D2 D/F/G/D/ E2 z[I:staff +1] C- | C/B,/A,/B,/ C/B,/A,/G,/ A,2- A,/G,/F,/G,/ | %52
 G,/F,/E,/G,/ F,/E,/D,/F,/ E,/G,/A,/B,/ C/B,/A,/G,/ | %53
 ^^F,/G,/A,/^F,/ D,2- D,/D,/E,/F,/ G,/A,/B,/G,/ |[I:staff -1] C2 [FA][FG] [CEG]4 |] %55
V:3
 z8 | z8 | z8 | z8 | z2 z G, A,/G,/F,/G,/ EC | G,F,/E,/ F,D E,CD,B, | %6
 C,C/B,/ C/D/E/C/ A,/B,/C/A,/ ^^F,/G,/A,/^^F,/ | B,,B,/A,/ B,/C/D/B,/ G,/A,/B,/G,/ E,/^^F,/G,/E,/ | %8
 A,,A,/G,/ A,/B,/C/A,/ ^^F,/G,/A,/F,/ D,/E,/^^F,/D,/ | G,,G,/A,/ B,G, C2 B,2 | A,G, ^^F,2 G,2 D,2 | %11
 B,[I:staff -1]D G2[I:staff +1] z =B,/G,/ E,2 | z E,/G,/ =B,2 A,=B, A,^^C, | D,2 z2 z4 | %14
 E,D,/C,/ D,B, C,A, B,,^^G, | A,,A,/^^G,/ A,/B,/C/A,/ ^^F,/^G,/A,/F,/ D,/E,/^^F,/D,/ | %16
 G,,G,/^^F,/ G,/A,/B,/G,/ E,/F,/G,/E,/ C,/D,/E,/C,/ | %17
 ^^F,,^^F,/E,/ F,/G,/A,/F,/ ^^D,/E,/F,/D,/ B,,/^^C,/D,/B,,/ | %18
 E,,/^^F,,/G,,/A,,/ B,,/^^C,/^^D,/B,,/ E,/^D,/^C,/D,/ E,/D,/C,/B,,/ | %19
 C,2- C,/B,,/A,,/C,/ B,,/A,,/G,,/B,,/ A,,/G,,/A,,/^^F,,/ | E,3 ^^D, E,^^D, E,A, | %21
 G,^^F,/E,/ F,A, G,/A,/B,/G,/ E,/^F,/G,/E,/ | %22
 ^^C,/D,/E,/C,/ A,,/C,/E,/A,/ D,/F,/A,/C/[I:staff -1] D/E/F/D/ | %23
[I:staff +1] B,/C/D/B,/ G,2- G,/-G,/A,/B,/ C z | G,/^^F,/E,/F,/ G,/F,/E,/D,/ E,2- E,/D,/C,/E,/ | %25
 D,/C,/B,,/D,/ C,/B,,/A,,/C,/ B,,D, F,2- | F,2 E,4 D,2- | D,C, D,G,, C,/D,/E,/F,/ E,/D,/C,/E,/ | %28
 A,/G,/^^F,/A,/ C/=B,/A,/C/ =ED/C/ B,/A,/G,/^^F,/ | %29
 G,/=B,/A,/G,/ ^^F,/E,/D,/C,/ =B,,/C,/D,/B,,/ G,,G,/=F,/ | z =B,/G,/ E, z z A,/F,/ D, z | %31
 z A,/F,/ D, z z G,/E,/ ^^C, z | z G,/E,/ ^^C, z z E,/D,/ B,, z | z F,/D,/ B,, z z4 | %34
 z =B,/C,/ A,/C,/G,/C,/ F,/C,/E,/D,/ E,G,, | z A,/C,/ G,/C,/F,/C,/ E,/C,/D,/C,/ D,G,, | %36
 z G,/G,,/ F,/G,,/E,/G,,/ D,/G,,/C,/B,,/ C,/G,,/E,/D,/ | %37
 E,/G,,/G,/F,/ G,/G,,/A,/G,,/ B,/C/D/B,/ G,/B,/D/E/ | %38
[I:staff -1] F/E/D/E/ cG ED/C/ D/[I:staff +1]G,/[I:staff -1]C/D/ | %39
 E/D/C/D/ BG DC/B,/ C/[I:staff +1]G,/[I:staff -1]B,/C/ | %40
 D/C/B,/C/ A^^F[I:staff +1] CB,/A,/ B,/G,/A,/B,/ | C/D/E/D/ F/E/D/C/ FA,/B,/ C/B,/A,/G,/ | %42
 A,2- A,/G,/F,/A,/ G,/F,/E,/G,/ F,/E,/F,/D,/ | E,>G, A,/B,/C- C2 B,2- | B,2 A,2- A,G,A,D, | %45
 G,2 z G, A,/G,/F,/G,/ EC | G,F,/E,/ F,D E,C D,B, | %47
 C,/G,,/C,/D,/ E,/F,/G,/E,/ F,/F,,/F,/E,/ F,/G,/A,/F,/ | %48
 D,/E,/F,/D,/ B,,/C,/D,/B,,/ E,,E,/D,/ E,/F,/G,/E,/ | %49
 ^^C,/D,/E,/C,/ A,,/B,,/^^C,/A,,/ D,,D,/C,/ D,/=E,/F,/D,/ | %50
 B,,/C,/D,/B,,/ G,,/A,,/B,,/G,,/ C,,C,/D,/ E,C, | F,2 E,2 D,C, B,,2 | C,2 G,,2 A,, z z2 | %53
 z2 z/ C,/B,,/A,,/ G,,2 z2 | z E,,F,,G,, !fermata!C,,4 |] %55
V:4
 x8 | x8 | x8 | x8 | x8 | x8 | x8 | x8 | x8 | x8 | x8 | G,2 z D/B,/ G,2 z G,/E,/ | %12
 C,2 D,,E, F,G,A,A,, | D,,2 z D, G,/E,/D,/E,/ CA, | x8 | x8 | x8 | x8 | x8 | x8 | %20
 F,,C, ^^F,,B,, E,,A,, G,,C, | B,,4 E,2 z2 | x8 | z2 z/ G,,/A,,/B,,/ C,2- C,/D,/E,/^^F,/ | x8 | %25
 x8 | x8 | x8 | x8 | x8 | C, z z C,/A,,/ F,, z z F,/D,/ | B,, z z B,,/G,,/ E,, z z E,/^^C,/ | %32
 A,, z z A,,/F,,/ D,, z z D,/B,,/ | G,, z z G,,/E,,/ C,,2 z2 | x8 | x8 | x8 | x8 | x8 | x8 | x8 | %41
 x8 | x8 | x8 | x8 | x8 | x8 | x8 | x8 | x8 | x8 | x8 | x8 | x8 | x8 |] %55

